X:81
T:Janine's
R:reel
D:Various Artists: "Shetland Sessions" (Easy Club), 14b
M:C|
L:1/8
K:Gm
DGGF GFD=E|F2CF A,FCA,|G,A,B,C D^FGA|BAGB AdcA|
DG~G2 d=BcA|~F2cA BAGF|GFDC B,CA,B,|1 G,GGF ~G3F:|2 G,GGF ~G3D||
|:GABd gabg|~f2df cAFA|GABc ~d2^cd|~D2ED ~D2^FD|
GABd gabg|~f2df cAFA|GFDC B,CA,B,|1 G,GGF ~G3D:|2 G,GGF ~G3F||
